icons/yarnlock.svg

<svg width="16" height="16" viewBox="0 0 16 16" fill="none" xmlns="http://www.w3.org/2000/svg">
<path fill-rule="evenodd" clip-rule="evenodd" d="M11.1111 7.5H9.77778C9.50164 7.5 9.27778 7.72386 9.27778 8V8.66667H11.6111V8C11.6111 7.72386 11.3873 7.5 11.1111 7.5ZM7.77778 8V9.00346C7.24178 9.36224 6.88889 9.97324 6.88889 10.6667V12C6.88889 13.1046 7.78432 14 8.88889 14H12C13.1046 14 14 13.1046 14 12V10.6667C14 9.97324 13.6471 9.36224 13.1111 9.00346V8C13.1111 6.89543 12.2157 6 11.1111 6H9.77778C8.67321 6 7.77778 6.89543 7.77778 8ZM11.3333 10.4444C11.3333 10.7735 11.1546 11.0607 10.8889 11.2144V12.2222C10.8889 12.4677 10.6899 12.6667 10.4444 12.6667C10.199 12.6667 10 12.4677 10 12.2222V11.2144C9.73431 11.0607 9.55556 10.7735 9.55556 10.4444C9.55556 9.95353 9.95353 9.55556 10.4444 9.55556C10.9354 9.55556 11.3333 9.95353 11.3333 10.4444Z" fill="#5ABBE4"/>
<path fill-rule="evenodd" clip-rule="evenodd" d="M7.94451 1C7.55803 1.37481 7.24054 1.81471 7.00656 2.29958C6.68195 2.2276 6.34572 2.22564 6.0203 2.29384C5.69488 2.36205 5.38773 2.49884 5.11934 2.6951C4.90409 3.20451 4.49869 3.60992 3.98928 3.82517C3.42424 4.03988 3.89887 5.42986 4.55431 6.0853C4.14037 6.17065 3.7532 6.3548 3.42579 6.62208C3.09838 6.88935 2.84044 7.23182 2.67395 7.62029C2.50746 8.00876 2.43736 8.43173 2.46962 8.85314C2.50187 9.27456 2.63553 9.68193 2.85921 10.0405C1.55963 10.6847 1.16411 12.8657 2.29417 12.8657C2.29417 12.8657 0.994597 13.9958 2.29417 13.9958C3.59375 13.9958 4.55431 12.3007 4.55431 12.3007H5.11934C4.80078 12.5942 4.60668 12.9986 4.57691 13.4307C4.57691 13.919 5.09739 13.9934 5.90945 13.9995C5.59258 13.5002 5.40909 12.9079 5.40909 12.2727V10.4545C5.40909 9.58107 5.75685 8.7891 6.31818 8.20945V7.72727C6.31818 6.00056 7.67424 4.59057 9.37949 4.50419C9.53062 3.04215 9.07458 2.13007 9.07458 2.13007L8.31743 2.29958C8.29342 1.84369 8.16589 1.39925 7.94451 1Z" fill="#5ABBE4" fill-opacity="0.7"/>
</svg>

<svg xmlns="http://www.w3.org/2000/svg" width="16" height="16" fill="none" viewBox="0 0 16 16"><path fill="#5ABBE4" fill-rule="evenodd" d="M11.111 7.5H9.778a.5.5 0 0 0-.5.5v.667h2.333V8a.5.5 0 0 0-.5-.5M7.778 8v1.003c-.536.36-.89.97-.89 1.664V12a2 2 0 0 0 2 2H12a2 2 0 0 0 2-2v-1.333a2 2 0 0 0-.889-1.664V8a2 2 0 0 0-2-2H9.778a2 2 0 0 0-2 2m3.555 2.444c0 .33-.178.617-.444.77v1.008a.444.444 0 1 1-.889 0v-1.008a.888.888 0 1 1 1.333-.77" clip-rule="evenodd"/><path fill="#5ABBE4" fill-opacity=".7" fill-rule="evenodd" d="M7.945 1a4.6 4.6 0 0 0-.938 1.3 2.34 2.34 0 0 0-1.888.395c-.215.51-.62.915-1.13 1.13-.565.215-.09 1.605.565 2.26a2.622 2.622 0 0 0-1.695 3.956c-1.3.644-1.695 2.825-.565 2.825 0 0-1.3 1.13 0 1.13s2.26-1.695 2.26-1.695h.565a1.7 1.7 0 0 0-.542 1.13c0 .488.52.562 1.332.569-.316-.5-.5-1.092-.5-1.727v-1.819c0-.873.348-1.665.91-2.245v-.482a3.227 3.227 0 0 1 3.06-3.223c.152-1.462-.304-2.374-.304-2.374l-.758.17A3 3 0 0 0 7.945 1" clip-rule="evenodd"/></svg>
